X:1874
L:1/4
Q:3/4=100
M:6/4
K:D
 A | F3/2 E/ D d2 e | f e d e d c | d D F G2 A | F3/2 E/ D d2 e | f e d e d c | d c d B e c | 
 d D D D2 :: f/g/ | a f a d3/2 e/ f | b g b e3/2 f/ g | a g f e f d | c d B A2 g | f a f g e g | 
 (f/g/ a) f g e g | f3/2 e/ d c3/2 B/ c | d D D D2 :|

